images/morshynska-logo.svg

<svg width="279" height="49" viewBox="0 0 279 49" fill="none" xmlns="http://www.w3.org/2000/svg">
<path d="M119.528 19.5145V39.0293H122.577H125.626V29.4854C125.626 20.8867 125.687 19.85 126.206 18.7523C127.639 15.6421 131.206 14.3919 134.164 15.947C136.817 17.3496 137.213 19.2706 137.213 30.705V39.0293H140.11H143.007V29.3329C143.007 18.7827 142.854 17.5021 141.268 14.5749C140.262 12.7149 138.799 11.4342 136.603 10.3975C135.231 9.78766 134.469 9.6352 132.334 9.6352C130.048 9.6352 129.499 9.75717 127.7 10.5804L125.626 11.5562V5.76274V-0.000205994H122.577H119.528V19.5145Z" fill="#1D1D1D"/>
<path d="M227.774 19.5145V39.0293H230.823H233.872L233.933 32.4431L234.025 25.8263L239.818 32.4431L245.612 39.0293H249.85H254.119L253.204 38.0231C252.686 37.5047 249.332 33.7542 245.733 29.7598L239.239 22.4418L245.916 15.947L252.625 9.45225H248.356H244.087L238.995 14.5444L233.872 19.667V9.81815V-0.000205994H230.823H227.774V19.5145Z" fill="#1D1D1D"/>
<path d="M10.0623 9.90963C9.14754 10.1841 7.86688 10.7329 7.25705 11.1598L6.09836 11.8916V11.1293V10.367H3.04918H0V24.6982V39.0293H3.20164H6.40328V29.1804C6.40328 19.5755 6.43377 19.3316 7.10459 18.1424C8.35475 15.947 10.5502 14.9713 13.3249 15.3982C15.0934 15.6421 16.8315 17.2582 17.3498 19.0572C17.5633 19.8195 17.6852 23.7529 17.6852 29.6378V39.0293H20.582H23.4787V30.1867C23.4787 24.9421 23.6007 20.7342 23.8141 19.8195C24.4544 16.8008 27.2597 14.9408 30.4613 15.3677C32.3518 15.6116 33.7239 16.6483 34.6082 18.4168L35.3705 19.9414V29.4854V39.0293H38.4197H41.4688V29.3024C41.4688 20.3683 41.4079 19.4231 40.859 17.5631C39.9747 14.7578 37.5049 12.105 34.3947 10.6719C32.4128 9.72668 31.8944 9.63521 29.577 9.63521C26.4669 9.6657 24.0275 10.489 22.2285 12.105L21.0393 13.1723L19.6672 11.9526C17.2888 9.84865 13.3249 9.02537 10.0623 9.90963Z" fill="#1D1D1D"/>
<path d="M56.5623 9.8187C54.001 10.3066 51.2567 11.8312 49.2138 13.8436C44.5485 18.5394 43.4813 25.7354 46.5305 31.7728C48.299 35.2489 52.3544 38.4505 56.1049 39.3043C57.8734 39.7007 61.0446 39.7007 62.8131 39.3043C69.3079 37.8102 74.0951 31.6203 74.0951 24.6987C74.0951 20.2774 72.6925 16.8318 69.7043 13.8436C66.1672 10.3371 61.4715 8.87345 56.5623 9.8187ZM63.057 16.1305C68.3321 18.8138 69.6738 26.3757 65.7098 31.0105C62.5387 34.7305 56.5318 34.822 53.3302 31.163C50.3725 27.8089 50.159 22.4118 52.7813 18.7528C55.1292 15.5207 59.6115 14.362 63.057 16.1305Z" fill="#1D1D1D"/>
<path d="M101.995 9.66489C99.2508 10.0308 96.2931 11.3114 95.0734 12.6836C94.1282 13.7508 93.3049 15.9767 93.3049 17.5013C93.3049 22.2275 95.7748 24.3924 103.55 26.3744C108.368 27.6246 109.588 28.2344 110.075 29.7285C110.38 30.6128 110.35 30.9787 109.862 31.9544C109.039 33.6314 107.484 34.3023 104.434 34.3023C102.33 34.3023 101.782 34.1803 100.592 33.479C99.3118 32.7167 98.1836 31.1921 98.1836 30.2164C98.1836 30.0029 97.1469 29.881 95.1039 29.881H91.9938L92.2072 31.1311C92.8475 35.1255 96.3846 38.3577 101.233 39.3639C103.672 39.8823 108.002 39.5469 110.228 38.7236C112.545 37.8393 115.015 35.5524 115.777 33.5705C116.967 30.4603 116.204 26.5269 114.009 24.5449C112.423 23.1118 110.807 22.441 106.02 21.1908C103.886 20.6114 101.599 19.9101 100.989 19.5747C98.9154 18.5075 98.8849 16.1901 100.928 15.1839C102.452 14.3911 106.355 14.4216 107.91 15.2449C108.978 15.7633 110.075 17.3183 110.075 18.2636C110.075 18.477 111.112 18.599 113.125 18.599C116.601 18.599 116.57 18.6295 115.686 16.0682C114.161 11.5554 108.307 8.81112 101.995 9.66489Z" fill="#1D1D1D"/>
<path d="M183.927 9.75717C183.195 9.90963 181.975 10.3975 181.213 10.8244C180.451 11.2513 179.78 11.5867 179.719 11.5867C179.688 11.5867 179.597 11.2818 179.536 10.8854C179.444 10.245 179.292 10.2145 176.487 10.1231L173.498 10.0316V24.5457V39.0293H176.548H179.597V30.0952C179.597 25.0945 179.749 20.5818 179.932 19.8195C180.603 16.8618 183.164 15.0323 186.213 15.3372C188.165 15.5506 189.446 16.3739 190.36 18.0814C191.001 19.3316 191.031 19.6975 191.123 29.1804L191.214 39.0293H194.111H197.008L196.916 28.4182L196.825 17.8375L195.879 15.8555C194.599 13.1418 193.318 11.7696 191.092 10.7024C188.988 9.69619 186.122 9.2998 183.927 9.75717Z" fill="#1D1D1D"/>
<path d="M209.021 9.78702C206.734 10.1529 204.935 10.9457 203.624 12.1349C201.459 14.0864 200.667 16.5562 201.246 19.4224C201.551 20.7641 201.917 21.4349 202.984 22.5936C204.57 24.3011 206.643 25.2464 211.247 26.3746C216.675 27.7162 218.016 28.57 218.016 30.6434C218.016 32.6254 216.187 34.028 213.199 34.3329C209.845 34.6988 206.765 33.2047 206.155 30.9178L205.942 30.0336L202.832 29.9421L199.752 29.8506L199.935 31.0093C200.392 33.8755 202.74 36.8637 205.667 38.2359C207.802 39.2726 209.479 39.608 212.223 39.6385C219.297 39.669 224.115 35.888 224.115 30.369C224.115 28.0211 223.596 26.6185 222.194 25.0634C220.578 23.2949 218.23 22.2277 213.443 21.069C209.326 20.0628 207.985 19.4224 207.405 18.2028C206.856 17.0746 207.436 15.8854 208.869 15.1536C210.393 14.3608 214.876 14.5132 216.034 15.3975C216.827 16.0073 217.498 16.9831 217.833 18.0503C217.986 18.5382 218.413 18.5991 221.066 18.5991H224.176L223.962 17.5929C223.596 16.0073 222.377 13.8424 221.157 12.6228C218.565 10.0919 213.839 8.96374 209.021 9.78702Z" fill="#1D1D1D"/>
<path d="M263.449 9.78732C259.089 10.5191 255.918 13.1719 255.094 16.8309L254.912 17.6847H257.93C260.827 17.6847 260.979 17.6542 261.528 16.9224C262.26 15.9162 264.059 15.2758 266.285 15.2453C270.035 15.2453 272.109 16.3735 271.926 18.2945C271.804 19.7276 270.371 20.3985 266.59 20.7644C261.62 21.2522 259.668 21.6486 257.93 22.4414C254.698 23.9355 253.356 25.948 253.143 29.5765C252.991 32.5647 253.783 34.7906 255.704 36.7116C257.747 38.7545 259.79 39.4558 263.754 39.4863C267.169 39.4863 268.816 39.0594 271.164 37.5958C271.834 37.169 272.383 36.8945 272.414 36.9555C272.444 37.0165 272.597 37.4434 272.78 37.9617L273.054 38.8765L276.042 38.968C277.811 39.029 279 38.9375 279 38.7545C279 38.6021 278.848 38.0837 278.634 37.5958C278.39 37.0165 278.207 33.388 278.085 26.6798C277.933 16.9834 277.902 16.5565 277.201 15.0014C275.341 10.8545 269.792 8.7506 263.449 9.78732ZM271.987 27.1067C271.987 30.1558 271.164 31.467 268.48 32.8391C266.681 33.7539 263.754 34.0893 262.138 33.5709C259.607 32.7171 258.296 29.607 259.882 28.1129C260.918 27.1371 262.047 26.8322 266.102 26.3444C268.145 26.1004 270.127 25.7955 270.523 25.6431C271.865 25.0942 271.987 25.2162 271.987 27.1067Z" fill="#1D1D1D"/>
<path d="M87.2371 10.2145C86.5053 10.428 85.3771 11.0378 84.7368 11.5562C84.0964 12.0745 83.5171 12.5014 83.4256 12.5014C83.3341 12.5014 83.2427 11.9831 83.1817 11.3427L83.0902 10.2145L80.285 10.1231L77.4492 10.0316V24.5457V39.0293H80.4679H83.5171L83.6086 29.4854L83.7 19.9719L84.5233 18.5388C85.4991 16.8923 87.8164 15.5506 89.7069 15.5506H90.8656V12.6539V9.75717L89.7374 9.78766C89.0971 9.78766 87.9689 9.97061 87.2371 10.2145Z" fill="#1D1D1D"/>
<path d="M143.616 10.3982C143.616 10.5506 145.964 16.6185 148.83 23.8755C151.697 31.1326 154.045 37.3224 154.045 37.6578C154.045 37.9932 153.252 40.2496 152.306 42.689C151.361 45.1283 150.446 47.4152 150.294 47.7811C150.05 48.4824 150.05 48.4824 153.221 48.4824C155.02 48.4824 156.423 48.3605 156.423 48.208C156.423 48.025 159.716 39.5178 163.741 29.2726C167.766 18.9969 171.059 10.4896 171.059 10.3372C171.059 10.1542 169.717 10.0932 167.949 10.1237L164.839 10.2152L161.18 19.7287C159.137 24.9732 157.399 29.1506 157.277 29.0287C157.155 28.9067 155.63 24.8208 153.862 19.9726C152.124 15.0939 150.599 10.886 150.477 10.5811C150.294 10.1237 149.806 10.0628 146.94 10.0628C144.806 10.0628 143.616 10.1847 143.616 10.3982Z" fill="#1D1D1D"/>
</svg>

<svg width="279" height="49" fill="none" xmlns="http://www.w3.org/2000/svg"><path d="M119.528 19.515v19.514h6.098v-9.544c0-8.598.061-9.635.58-10.733 1.433-3.11 5-4.36 7.958-2.805 2.653 1.403 3.049 3.324 3.049 14.758v8.324h5.794v-9.696c0-10.55-.153-11.83-1.739-14.758-1.006-1.86-2.469-3.14-4.665-4.177-1.372-.61-2.134-.763-4.269-.763-2.286 0-2.835.122-4.634.945l-2.074.976V0h-6.098v19.515zM227.774 19.515v19.514h6.098l.061-6.586.092-6.617 5.793 6.617 5.794 6.586H254.119l-.915-1.006c-.518-.518-3.872-4.269-7.471-8.263l-6.494-7.318 6.677-6.495 6.709-6.495h-8.538l-5.092 5.092-5.123 5.123V0h-6.098v19.515zM10.062 9.91c-.914.274-2.195.823-2.805 1.25l-1.159.732v-1.525H0v28.662H6.403V29.18c0-9.604.03-9.848.702-11.038 1.25-2.195 3.445-3.17 6.22-2.744 1.768.244 3.506 1.86 4.025 3.66.213.762.335 4.695.335 10.58v9.391h5.794v-8.842c0-5.245.122-9.453.335-10.367.64-3.02 3.446-4.88 6.647-4.452 1.89.244 3.263 1.28 4.147 3.049l.763 1.524V39.03h6.098v-9.727c0-8.934-.061-9.879-.61-11.739-.884-2.805-3.354-5.458-6.464-6.891-1.982-.945-2.5-1.037-4.818-1.037-3.11.03-5.55.854-7.349 2.47l-1.189 1.067-1.372-1.22C17.29 9.85 13.325 9.026 10.062 9.91zM56.562 9.819c-2.561.488-5.305 2.012-7.348 4.025-4.666 4.695-5.733 11.891-2.683 17.929 1.768 3.476 5.823 6.677 9.574 7.531 1.768.397 4.94.397 6.708 0C69.308 37.81 74.095 31.62 74.095 24.7c0-4.422-1.403-7.867-4.39-10.855-3.538-3.507-8.233-4.97-13.143-4.025zm6.495 6.312c5.275 2.683 6.617 10.245 2.653 14.88-3.171 3.72-9.178 3.811-12.38.152-2.957-3.354-3.171-8.751-.549-12.41 2.348-3.232 6.83-4.391 10.276-2.622zM101.995 9.665c-2.744.366-5.702 1.646-6.922 3.019-.945 1.067-1.768 3.293-1.768 4.817 0 4.726 2.47 6.891 10.245 8.873 4.818 1.25 6.038 1.86 6.525 3.355.305.884.275 1.25-.213 2.225-.823 1.677-2.378 2.348-5.428 2.348-2.104 0-2.652-.122-3.842-.823-1.28-.762-2.408-2.287-2.408-3.263 0-.213-1.037-.335-3.08-.335h-3.11l.213 1.25c.64 3.995 4.178 7.227 9.026 8.233 2.439.518 6.769.183 8.995-.64 2.317-.885 4.787-3.172 5.549-5.153 1.19-3.11.427-7.044-1.768-9.026-1.586-1.433-3.202-2.104-7.989-3.354-2.134-.58-4.421-1.28-5.031-1.616-2.074-1.067-2.104-3.385-.061-4.391 1.524-.793 5.427-.762 6.982.06 1.068.52 2.165 2.074 2.165 3.02 0 .213 1.037.335 3.05.335 3.476 0 3.445.03 2.561-2.53-1.525-4.514-7.379-7.258-13.691-6.404zM183.927 9.757c-.732.153-1.952.64-2.714 1.067-.762.427-1.433.763-1.494.763-.031 0-.122-.305-.183-.702-.092-.64-.244-.67-3.049-.762l-2.989-.091v28.997h6.099v-8.934c0-5 .152-9.513.335-10.275.671-2.958 3.232-4.788 6.281-4.483 1.952.214 3.233 1.037 4.147 2.744.641 1.25.671 1.617.763 11.1l.091 9.848h5.794l-.092-10.61-.091-10.582-.946-1.982c-1.28-2.713-2.561-4.085-4.787-5.153-2.104-1.006-4.97-1.402-7.165-.945zM209.021 9.787c-2.287.366-4.086 1.159-5.397 2.348-2.165 1.951-2.957 4.421-2.378 7.287.305 1.342.671 2.013 1.738 3.172 1.586 1.707 3.659 2.652 8.263 3.78 5.428 1.342 6.769 2.196 6.769 4.27 0 1.981-1.829 3.384-4.817 3.689-3.354.366-6.434-1.128-7.044-3.415l-.213-.884-3.11-.092-3.08-.091.183 1.158c.457 2.867 2.805 5.855 5.732 7.227 2.135 1.037 3.812 1.372 6.556 1.403 7.074.03 11.892-3.751 11.892-9.27 0-2.348-.519-3.75-1.921-5.306-1.616-1.768-3.964-2.835-8.751-3.994-4.117-1.006-5.458-1.647-6.038-2.866-.549-1.128.031-2.318 1.464-3.05 1.524-.792 6.007-.64 7.165.245.793.61 1.464 1.585 1.799 2.652.153.488.58.55 3.233.55h3.11l-.214-1.007c-.366-1.586-1.585-3.75-2.805-4.97-2.592-2.531-7.318-3.66-12.136-2.836z" fill="#1D1D1D"/><path d="M263.449 9.787c-4.36.732-7.531 3.385-8.355 7.044l-.182.854h3.018c2.897 0 3.049-.03 3.598-.763.732-1.006 2.531-1.646 4.757-1.677 3.75 0 5.824 1.129 5.641 3.05-.122 1.433-1.555 2.103-5.336 2.47-4.97.487-6.922.884-8.66 1.676-3.232 1.495-4.574 3.507-4.787 7.136-.152 2.988.64 5.214 2.561 7.135 2.043 2.042 4.086 2.744 8.05 2.774 3.415 0 5.062-.427 7.41-1.89.67-.427 1.219-.701 1.25-.64.03.06.183.487.366 1.006l.274.914 2.988.092c1.769.061 2.958-.03 2.958-.214 0-.152-.152-.67-.366-1.158-.244-.58-.427-4.208-.549-10.916-.152-9.697-.183-10.123-.884-11.679-1.86-4.146-7.409-6.25-13.752-5.214zm8.538 17.32c0 3.049-.823 4.36-3.507 5.732-1.799.915-4.726 1.25-6.342.732-2.531-.854-3.842-3.964-2.256-5.458 1.036-.976 2.165-1.28 6.22-1.769 2.043-.244 4.025-.549 4.421-.7 1.342-.55 1.464-.428 1.464 1.463zM87.237 10.214c-.732.214-1.86.824-2.5 1.342-.64.519-1.22.945-1.311.945-.092 0-.183-.518-.244-1.158l-.092-1.129-2.805-.09-2.836-.092v28.997h6.069l.09-9.544.092-9.513.823-1.433c.976-1.647 3.293-2.988 5.184-2.988h1.159V9.757l-1.129.03c-.64 0-1.768.184-2.5.427zM143.616 10.398c0 .153 2.348 6.22 5.214 13.477 2.867 7.258 5.215 13.447 5.215 13.783 0 .335-.793 2.592-1.739 5.031-.945 2.44-1.86 4.726-2.012 5.092-.244.701-.244.701 2.927.701 1.799 0 3.202-.121 3.202-.274 0-.183 3.293-8.69 7.318-18.935 4.025-10.276 7.318-18.783 7.318-18.936 0-.183-1.342-.244-3.11-.213l-3.11.091-3.659 9.514c-2.043 5.244-3.781 9.422-3.903 9.3-.122-.122-1.647-4.208-3.415-9.056-1.738-4.88-3.263-9.087-3.385-9.392-.183-.457-.671-.518-3.537-.518-2.134 0-3.324.122-3.324.335z" fill="#1D1D1D"/></svg>
